app/assets/images/Contenido/Producto.svg

<svg fill="none" height="51" viewBox="0 0 51 51" width="51" xmlns="http://www.w3.org/2000/svg"><path d="m39.7239 6.23151-5.1-2.69041c-4.4778-2.35988-6.7167-3.5411-9.1239-3.5411s-4.6461 1.17866-9.1239 3.5411l-.8186.43303 22.7537 13.06517 10.2408-5.1502c-1.6473-1.8756-4.3044-3.27721-8.8281-5.66271zm10.6335 9.05009-10.1949 5.1245v7.7792c0 .5097-.2015.9985-.5602 1.3589-.3586.3603-.8451.5628-1.3523.5628s-.9937-.2025-1.3523-.5628c-.3587-.3604-.5602-.8492-.5602-1.3589v-5.86l-8.925 4.484v24.1907c1.8309-.4587 3.9142-1.5553 7.2114-3.2951l5.1-2.6904c5.485-2.8929 8.2288-4.338 9.7537-6.9387 1.5224-2.5982 1.5224-5.8344 1.5224-12.2991v-.2998c0-4.8504 0-7.8842-.6426-10.1953zm-26.7699 35.7184v-24.1881l-22.9449-11.5303c-.64259977 2.3111-.6426 5.3449-.6426 10.1902v.2998c0 6.4698-.0000003 9.706 1.52235 12.3042 1.5249 2.6007 4.2687 4.0484 9.75375 6.9412l5.1 2.6879c3.2971 1.7398 5.3805 2.8364 7.2114 3.2951zm-21.1395-39.1084 23.052 11.5816 8.6981-4.3687-22.6593-13.01135-.2627.13836c-4.52115 2.38294-7.1808 3.78449-8.8281 5.66269z" fill="#222"/></svg>

<svg width="51" height="51" viewBox="0 0 51 51" fill="none" xmlns="http://www.w3.org/2000/svg">
<path d="M39.7239 6.23151L34.6239 3.5411C30.1461 1.18122 27.9072 0 25.5 0C23.0928 0 20.8539 1.17866 16.3761 3.5411L15.5575 3.97413L38.3112 17.0393L48.552 11.8891C46.9047 10.0135 44.2476 8.61189 39.7239 6.22639V6.23151ZM50.3574 15.2816L40.1625 20.4061V28.1853C40.1625 28.695 39.961 29.1838 39.6023 29.5442C39.2437 29.9045 38.7572 30.107 38.25 30.107C37.7428 30.107 37.2563 29.9045 36.8977 29.5442C36.539 29.1838 36.3375 28.695 36.3375 28.1853V22.3253L27.4125 26.8093V51C29.2434 50.5413 31.3267 49.4447 34.6239 47.7049L39.7239 45.0145C45.2089 42.1216 47.9527 40.6765 49.4776 38.0758C51 35.4776 51 32.2414 51 25.7767V25.4769C51 20.6265 51 17.5927 50.3574 15.2816ZM23.5875 51V26.8119L0.6426 15.2816C2.27988e-07 17.5927 0 20.6265 0 25.4718V25.7716C0 32.2414 -3.03984e-07 35.4776 1.52235 38.0758C3.04725 40.6765 5.79105 42.1242 11.2761 45.017L16.3761 47.7049C19.6732 49.4447 21.7566 50.5413 23.5875 51ZM2.448 11.8916L25.5 23.4732L34.1981 19.1045L11.5388 6.09315L11.2761 6.23151C6.75495 8.61445 4.0953 10.016 2.448 11.8942V11.8916Z" fill="#222222"/>
</svg>
